X: 1
T: The Long Lane
R: hornpipe
M: 4/4
L: 1/8
K: Gmaj
(3A^G=G|:F2 FG AD FA|d^c de fd ef|gf gf ed ^cd|(3efe (3d^cB (3ABA (3FG^G|AF AB dB df|ed ef ge ag|(3fgf df (3efe ^ce|1 df e^c dB AG:|2 df e^c de (3fg^g||
a2 fa fg ga|fA fa eA B^c|d^c de fd ef|gf ed ^ce fg|(3aaa fa (3ggg eg|fA fa eA B^c|d^c de fA gf|eA ^ce de fg|
(3aaa fa (3ggg eg|fa fa eA B^c|d^c de fA ef|gf ed ^cB AG|FD FG AB df|ed ef ge ag|(3fgf df (3efe ^ce|df e^c dB AG||

